X:188
T:Jacky Wagtail. JJo8.188
B:J.Johnson Choice Collection Vol 8 1758
Z:vmp.Simon Wilson 2013 www.village-music-project.org.uk
M:6/8
L:1/8
Q:3/8=120
K:D
|:d3AFD|BGE EFG|ABA AFD|fdB Bcd|efe ecA|BGE EFG|ABA AFD|dAF DFA:|
|:d3faf|gbg efg|d3efg|bgb afd|gbg faf|ecA Bcd|ABA AFD|dAF DFA:|
